svg/icon/maid.svg

<svg height="32" viewBox="0 0 32 32" width="32" xmlns="http://www.w3.org/2000/svg" xmlns:xlink="http://www.w3.org/1999/xlink"><defs><linearGradient id="a" x1="50%" x2="50%" y1="0%" y2="100%"><stop offset="0" stop-color="#fff" stop-opacity=".5"/><stop offset="1" stop-opacity=".5"/></linearGradient><circle id="b" cx="16" cy="15" r="15"/><filter id="c" height="111.7%" width="111.7%" x="-5.8%" y="-4.2%"><feOffset dy=".5" in="SourceAlpha" result="shadowOffsetOuter1"/><feGaussianBlur in="shadowOffsetOuter1" result="shadowBlurOuter1" stdDeviation=".5"/><feComposite in="shadowBlurOuter1" in2="SourceAlpha" operator="out" result="shadowBlurOuter1"/><feColorMatrix in="shadowBlurOuter1" values="0 0 0 0 0   0 0 0 0 0   0 0 0 0 0  0 0 0 0.199473505 0"/></filter><path id="d" d="m20.2457143 18.1538462v6.4871794l-10.95428573-6.3076923c-3.24-1.8974359-3.03428571-3.076923-3.03428571-5.6410256l11.26285714 6.5128205v-1.5641026 1.5641026l-11.26285714-6.5128205 10.95428574-6.30769232c3.24-1.84615384 4.1657143-1.07692307 6.4285714.20512821l-5.6314286 3.25641026 5.6314286-3.25641026v12.61538461c0 3.7435897-1.1314286 4.1538462-3.3942857 5.4358974z"/><filter id="e" height="118.1%" width="120.1%" x="-10.1%" y="-6.5%"><feOffset dy=".5" in="SourceAlpha" result="shadowOffsetOuter1"/><feGaussianBlur in="shadowOffsetOuter1" result="shadowBlurOuter1" stdDeviation=".5"/><feComposite in="shadowBlurOuter1" in2="SourceAlpha" operator="out" result="shadowBlurOuter1"/><feColorMatrix in="shadowBlurOuter1" values="0 0 0 0 0   0 0 0 0 0   0 0 0 0 0  0 0 0 0.204257246 0"/></filter></defs><g fill="none" fill-rule="evenodd"><use fill="#000" filter="url(#c)" xlink:href="#b"/><use fill="#5592d7" xlink:href="#b"/><use fill="url(#a)" xlink:href="#b"/><circle cx="16" cy="15" r="14.5" stroke="#000" stroke-opacity=".097"/><g fill-rule="nonzero"><g fill="#fff" transform="translate(6 5)"><path d="m14.2457143 6.66666667v12.97435893l-10.95428573-6.3076923c-3.24-1.8974359-3.03428571-3.076923-3.03428571-5.64102561l11.26285714 6.51282051v-5.94871794z"/><path d="m11.52 14.2051282-11.26285714-6.51282051 10.95428574-6.30769231c3.24-1.84615384 4.1657143-1.07692307 6.4285714.20512821l-11.26285714 6.51282051 5.14285714 2.974359z" opacity=".6"/><path d="m6.37714286 8.1025641 11.26285714-6.51282051v12.61538461c0 3.7435897-1.1314286 4.1538462-3.3942857 5.4358974v-12.97435893l-5.19428573 2.97435897z" opacity=".2"/></g><g><use fill="#000" filter="url(#e)" xlink:href="#d"/><use fill="none" xlink:href="#d"/></g></g></g></svg>

<svg xmlns="http://www.w3.org/2000/svg" xmlns:xlink="http://www.w3.org/1999/xlink" width="32" height="32" viewBox="0 0 32 32">
  <defs>
    <linearGradient id="maid-c" x1="50%" x2="50%" y1="0%" y2="100%">
      <stop offset="0%" stop-color="#FFF" stop-opacity=".5"/>
      <stop offset="100%" stop-opacity=".5"/>
    </linearGradient>
    <circle id="maid-b" cx="16" cy="15" r="15"/>
    <filter id="maid-a" width="111.7%" height="111.7%" x="-5.8%" y="-4.2%" filterUnits="objectBoundingBox">
      <feOffset dy=".5" in="SourceAlpha" result="shadowOffsetOuter1"/>
      <feGaussianBlur in="shadowOffsetOuter1" result="shadowBlurOuter1" stdDeviation=".5"/>
      <feComposite in="shadowBlurOuter1" in2="SourceAlpha" operator="out" result="shadowBlurOuter1"/>
      <feColorMatrix in="shadowBlurOuter1" values="0 0 0 0 0   0 0 0 0 0   0 0 0 0 0  0 0 0 0.199473505 0"/>
    </filter>
    <path id="maid-e" d="M20.2457143,18.1538462 L20.2457143,24.6410256 L9.29142857,18.3333333 C6.05142857,16.4358974 6.25714286,15.2564103 6.25714286,12.6923077 L17.52,19.2051282 L17.52,17.6410256 L17.52,19.2051282 L6.25714286,12.6923077 L17.2114286,6.38461538 C20.4514286,4.53846154 21.3771429,5.30769231 23.64,6.58974359 L18.0085714,9.84615385 L23.64,6.58974359 L23.64,19.2051282 C23.64,22.9487179 22.5085714,23.3589744 20.2457143,24.6410256 L20.2457143,18.1538462 Z"/>
    <filter id="maid-d" width="120.1%" height="118.1%" x="-10.1%" y="-6.5%" filterUnits="objectBoundingBox">
      <feOffset dy=".5" in="SourceAlpha" result="shadowOffsetOuter1"/>
      <feGaussianBlur in="shadowOffsetOuter1" result="shadowBlurOuter1" stdDeviation=".5"/>
      <feComposite in="shadowBlurOuter1" in2="SourceAlpha" operator="out" result="shadowBlurOuter1"/>
      <feColorMatrix in="shadowBlurOuter1" values="0 0 0 0 0   0 0 0 0 0   0 0 0 0 0  0 0 0 0.204257246 0"/>
    </filter>
  </defs>
  <g fill="none" fill-rule="evenodd">
    <use fill="#000" filter="url(#maid-a)" xlink:href="#maid-b"/>
    <use fill="#5592D7" xlink:href="#maid-b"/>
    <use fill="url(#maid-c)" style="mix-blend-mode:soft-light" xlink:href="#maid-b"/>
    <circle cx="16" cy="15" r="14.5" stroke="#000" stroke-opacity=".097"/>
    <g fill="#FFF" fill-rule="nonzero" transform="translate(6 5)">
      <path d="M14.2457143,6.66666667 L14.2457143,19.6410256 L3.29142857,13.3333333 C0.0514285714,11.4358974 0.257142857,10.2564103 0.257142857,7.69230769 L11.52,14.2051282 L11.52,8.25641026 L14.2457143,6.66666667 Z"/>
      <path d="M11.52,14.2051282 L0.257142857,7.69230769 L11.2114286,1.38461538 C14.4514286,-0.461538462 15.3771429,0.307692308 17.64,1.58974359 L6.37714286,8.1025641 L11.52,11.0769231 L11.52,14.2051282 Z" opacity=".6"/>
      <path d="M6.37714286,8.1025641 L17.64,1.58974359 L17.64,14.2051282 C17.64,17.9487179 16.5085714,18.3589744 14.2457143,19.6410256 L14.2457143,6.66666667 L9.05142857,9.64102564 L6.37714286,8.1025641 Z" opacity=".2"/>
    </g>
    <g fill-rule="nonzero">
      <use fill="#000" filter="url(#maid-d)" xlink:href="#maid-e"/>
      <use fill="#FFF" fill-opacity="0" fill-rule="evenodd" xlink:href="#maid-e"/>
    </g>
  </g>
</svg>
